src/lib/packages/icons/src/assets/filled/paypal-card.svg

<svg width="24" height="24" viewBox="0 0 24 24" fill="none" xmlns="http://www.w3.org/2000/svg">
<path d="M18 5H6C4 5 3 6 3 8V16C3 18 4 19 6 19H18C20 19 21 18 21 16V8C21 6 20 5 18 5ZM6.04999 12.25H5.51001C5.51001 12.25 5.43001 12.28 5.42001 12.33L5.26999 13.26C5.26999 13.26 5.22 13.33 5.19 13.33H4.59C4.59 13.33 4.57 13.33 4.56 13.32C4.53 13.31 4.50001 13.27 4.51001 13.24L5.01001 10.07C5.01001 10.07 5.06001 9.98999 5.10001 9.98999H6.23001C6.93001 9.98999 7.42999 10.54 7.32999 11.17C7.27999 11.48 7.13001 11.76 6.89001 11.95C6.66001 12.15 6.36 12.25 6.06 12.25H6.04999ZM9.64999 13.27C9.64999 13.27 9.6 13.34 9.56 13.34H8.98999C8.98999 13.34 8.96999 13.34 8.95999 13.33C8.92999 13.32 8.9 13.28 8.91 13.25V13.18C8.24 13.65 7.63 13.2 7.63 13.2C6.97 12.73 7.26001 11.88 7.26001 11.88C7.35001 11.59 7.57001 11.21 8.01001 11.03C8.79001 10.71 9.23001 11.19 9.23001 11.19L9.25 11.06C9.25 11.06 9.3 10.99 9.34 10.99H9.91C9.91 10.99 9.93 10.99 9.94 11C9.97 11.01 9.98999 11.05 9.98999 11.08L9.64001 13.26L9.64999 13.27ZM10.98 14.01H10.31C10.31 14.01 10.29 14.01 10.28 14.01C10.25 13.99 10.24 13.95 10.26 13.92L10.82 13.02L10.2 11.1C10.2 11.1 10.2 11.08 10.2 11.07C10.2 11.04 10.23 11.01 10.27 11.01H10.89C10.89 11.01 10.96 11.04 10.97 11.07L11.32 12.21L12 11.06C12 11.06 12.06 11.01 12.1 11.01H12.77C12.77 11.01 12.82 11.02 12.83 11.04C12.84 11.06 12.84 11.09 12.83 11.11L11.09 13.97C11.09 13.97 11.03 14.02 11 14.02L10.98 14.01ZM14.23 12.26H13.69C13.69 12.26 13.6 12.29 13.6 12.34L13.45 13.27C13.45 13.27 13.4 13.34 13.36 13.34H12.74C12.74 13.34 12.68 13.28 12.69 13.25L13.19 10.08C13.19 10.08 13.24 10 13.28 10H14.41C15.11 10 15.61 10.55 15.51 11.18C15.46 11.49 15.31 11.77 15.07 11.96C14.84 12.16 14.54 12.26 14.24 12.26H14.23ZM17.83 13.28C17.83 13.28 17.78 13.35 17.74 13.35H17.17C17.17 13.35 17.15 13.35 17.14 13.34C17.11 13.33 17.08 13.29 17.09 13.26V13.19C16.42 13.66 15.81 13.21 15.81 13.21C15.15 12.74 15.44 11.89 15.44 11.89C15.53 11.6 15.75 11.22 16.19 11.04C16.97 10.72 17.41 11.2 17.41 11.2L17.43 11.07C17.43 11.07 17.48 11 17.51 11H18.09C18.09 11 18.14 11.01 18.15 11.03C18.16 11.04 18.17 11.06 18.17 11.09L17.82 13.27L17.83 13.28ZM18.99 13.28C18.99 13.28 18.95 13.35 18.9 13.35H18.3C18.3 13.35 18.3 13.35 18.29 13.35C18.25 13.35 18.22 13.3 18.22 13.26L18.73 10.08C18.73 10.08 18.77 10 18.82 10.01H19.42C19.42 10.01 19.42 10.01 19.43 10.01C19.47 10.01 19.5 10.06 19.5 10.1L18.99 13.28ZM9.07001 12.21C9.05001 12.36 8.97999 12.5 8.85999 12.6C8.72999 12.7 8.57999 12.75 8.42999 12.75C8.36999 12.75 8.31001 12.74 8.26001 12.73C8.01001 12.65 7.87 12.42 7.91 12.16C7.93 12.01 8 11.87 8.13 11.77C8.25 11.67 8.39999 11.62 8.54999 11.62C8.61999 11.62 8.68001 11.63 8.73001 11.64C8.97001 11.72 9.11 11.95 9.06 12.21H9.07001ZM14.72 11.16C14.69 11.39 14.5 11.56 14.15 11.56H13.71L13.84 10.72H14.28C14.64 10.72 14.75 10.93 14.72 11.16ZM17.25 12.21C17.23 12.36 17.16 12.5 17.04 12.6C16.91 12.7 16.76 12.75 16.61 12.75C16.55 12.75 16.49 12.74 16.44 12.73C16.19 12.65 16.05 12.42 16.09 12.16C16.11 12.01 16.18 11.87 16.3 11.77C16.43 11.68 16.58 11.62 16.73 11.62C16.79 11.62 16.85 11.63 16.9 11.64C17.15 11.72 17.29 11.95 17.25 12.21ZM6.54001 11.16C6.51001 11.39 6.32 11.56 5.97 11.56H5.53L5.66 10.72H6.10001C6.46001 10.72 6.57001 10.93 6.54001 11.16Z" fill="currentColor"/>
</svg>

<svg xmlns="http://www.w3.org/2000/svg" width="24" height="24" fill="none"><path fill="currentColor" d="M18 5H6C4 5 3 6 3 8v8c0 2 1 3 3 3h12c2 0 3-1 3-3V8c0-2-1-3-3-3ZM6.05 12.25h-.54s-.08.03-.09.08l-.15.93s-.05.07-.08.07h-.6s-.02 0-.03-.01c-.03-.01-.06-.05-.05-.08l.5-3.17s.05-.08.09-.08h1.13c.7 0 1.2.55 1.1 1.18-.05.31-.2.59-.44.78-.23.2-.53.3-.83.3h-.01Zm3.6 1.02s-.05.07-.09.07h-.57s-.02 0-.03-.01c-.03-.01-.06-.05-.05-.08v-.07c-.67.47-1.28.02-1.28.02-.66-.47-.37-1.32-.37-1.32.09-.29.31-.67.75-.85.78-.32 1.22.16 1.22.16l.02-.13s.05-.07.09-.07h.57s.02 0 .03.01c.03.01.05.05.05.08l-.35 2.18.01.01Zm1.33.74h-.7a.065.065 0 0 1-.02-.09l.56-.9-.62-1.92v-.03c0-.03.03-.06.07-.06h.62s.07.03.08.06l.35 1.14.68-1.15s.06-.05.1-.05h.67s.05.01.06.03c.01.02.01.05 0 .07l-1.74 2.86s-.06.05-.09.05l-.02-.01Zm3.25-1.75h-.54s-.09.03-.09.08l-.15.93s-.05.07-.09.07h-.62s-.06-.06-.05-.09l.5-3.17s.05-.08.09-.08h1.13c.7 0 1.2.55 1.1 1.18-.05.31-.2.59-.44.78-.23.2-.53.3-.83.3h-.01Zm3.6 1.02s-.05.07-.09.07h-.57s-.02 0-.03-.01c-.03-.01-.06-.05-.05-.08v-.07c-.67.47-1.28.02-1.28.02-.66-.47-.37-1.32-.37-1.32.09-.29.31-.67.75-.85.78-.32 1.22.16 1.22.16l.02-.13s.05-.07.08-.07h.58s.05.01.06.03c.01.01.02.03.02.06l-.35 2.18.01.01Zm1.16 0s-.04.07-.09.07h-.61c-.04 0-.07-.05-.07-.09l.51-3.18s.04-.08.09-.07h.61c.04 0 .07.05.07.09l-.51 3.18Zm-9.92-1.07c-.02.15-.09.29-.21.39a.703.703 0 0 1-.6.13.5.5 0 0 1-.35-.57c.02-.15.09-.29.22-.39.12-.1.27-.15.42-.15.07 0 .13.01.18.02.24.08.38.31.33.57h.01Zm5.65-1.05c-.03.23-.22.4-.57.4h-.44l.13-.84h.44c.36 0 .47.21.44.44Zm2.53 1.05c-.02.15-.09.29-.21.39a.703.703 0 0 1-.6.13.5.5 0 0 1-.35-.57c.02-.15.09-.29.21-.39.13-.09.28-.15.43-.15.06 0 .12.01.17.02a.5.5 0 0 1 .35.57ZM6.54 11.16c-.03.23-.22.4-.57.4h-.44l.13-.84h.44c.36 0 .47.21.44.44Z"/></svg>
